docs/.gitbook/assets/icon-medical-support-16@dark.svg

<svg width="32" height="32" viewBox="0 0 16 16" fill="none" xmlns="http://www.w3.org/2000/svg">
<rect x="0" y="0" width="16" height="16" fill="#181c1f"/>
<path fill-rule="evenodd" clip-rule="evenodd" d="M5 2.75C5 1.7835 5.7835 1 6.75 1L9.25 1C10.2165 1 11 1.7835 11 2.75V3H12.25C13.7688 3 15 4.23122 15 5.75V12.25C15 13.7688 13.7688 15 12.25 15H3.75C2.23122 15 1 13.7688 1 12.25L1 5.75C1 4.23122 2.23122 3 3.75 3H5V2.75ZM6.5 3H9.5V2.75C9.5 2.61193 9.38807 2.5 9.25 2.5L6.75 2.5C6.61193 2.5 6.5 2.61193 6.5 2.75V3ZM3.75 4.5C3.05964 4.5 2.5 5.05964 2.5 5.75L2.5 12.25C2.5 12.9404 3.05964 13.5 3.75 13.5H12.25C12.9404 13.5 13.5 12.9404 13.5 12.25V5.75C13.5 5.05964 12.9404 4.5 12.25 4.5H3.75ZM8 6C8.41421 6 8.75 6.33579 8.75 6.75V8.25H10.25C10.6642 8.25 11 8.58579 11 9C11 9.41421 10.6642 9.75 10.25 9.75H8.75V11.25C8.75 11.6642 8.41421 12 8 12C7.58579 12 7.25 11.6642 7.25 11.25V9.75H5.75C5.33579 9.75 5 9.41421 5 9C5 8.58579 5.33579 8.25 5.75 8.25H7.25V6.75C7.25 6.33579 7.58579 6 8 6Z" fill="#fff"/>
</svg>

<svg xmlns="http://www.w3.org/2000/svg" width="32" height="32" fill="none" viewBox="0 0 16 16"><path fill="#181c1f" d="M0 0h16v16H0z"/><path fill="#fff" fill-rule="evenodd" d="M5 2.75C5 1.784 5.784 1 6.75 1h2.5c.966 0 1.75.784 1.75 1.75V3h1.25A2.75 2.75 0 0 1 15 5.75v6.5A2.75 2.75 0 0 1 12.25 15h-8.5A2.75 2.75 0 0 1 1 12.25v-6.5A2.75 2.75 0 0 1 3.75 3H5zM6.5 3h3v-.25a.25.25 0 0 0-.25-.25h-2.5a.25.25 0 0 0-.25.25zM3.75 4.5c-.69 0-1.25.56-1.25 1.25v6.5c0 .69.56 1.25 1.25 1.25h8.5c.69 0 1.25-.56 1.25-1.25v-6.5c0-.69-.56-1.25-1.25-1.25zM8 6a.75.75 0 0 1 .75.75v1.5h1.5a.75.75 0 0 1 0 1.5h-1.5v1.5a.75.75 0 0 1-1.5 0v-1.5h-1.5a.75.75 0 0 1 0-1.5h1.5v-1.5A.75.75 0 0 1 8 6" clip-rule="evenodd"/></svg>
